; generated by PrusaSlicer 2.4.1+win64 on 2022-04-07 at 23:36:11 UTC

; 

; external perimeters extrusion width = 0.45mm
; perimeters extrusion width = 0.45mm
; infill extrusion width = 0.45mm
; solid infill extrusion width = 0.45mm
; top infill extrusion width = 0.40mm
; support material extrusion width = 0.35mm
; first layer extrusion width = 0.42mm

M73 P0 R80
M73 Q0 S80
M107
;TYPE:Custom
M862.3 P "MK3SMMU2S" ; printer model check
M862.1 P0.4 ; nozzle diameter check
M115 U3.10.0 ; tell printer latest fw version
G90 ; use absolute coordinates
M83 ; extruder relative mode
M104 S215 ; set extruder temp
M140 S60 ; set bed temp
M190 S60 ; wait for bed temp
M109 S215 ; wait for extruder temp
G28 W ; home all without mesh bed level
G80 ; mesh bed leveling

; Send the filament type to the MMU2.0 unit.
; E stands for extruder number, F stands for filament type (0: default; 1:flex; 2: PVA)
M403 E0 F0
M403 E1 F0
M403 E2 F0
M403 E3 F0
M403 E4 F0


;go outside print area
G1 Y-3.0 F1000.0
G1 Z0.4 F1000.0
; select extruder
T4
; initial load
M73 P0 R79
G1 X55.0 E29.0 F1073.0
G1 X5.0 E29.0 F1800.0
G1 X55.0 E8.0 F2000.0
G1 Z0.3 F1000.0
G92 E0.0
G1 X240.0 E25.0 F2200.0
G1 Y-2.0 F1000.0
G1 X55.0 E25 F1400.0
G1 Z0.20 F1000.0
G1 X5.0 E4.0 F1000.0
G92 E0.0


M221 S95
G92 E0.0

; Don't change E values below. Excessive value can damage the printer.
M907 E430 ; set extruder motor current
G21 ; set units to millimeters
G90 ; use absolute coordinates
M83 ; use relative distances for extrusion
T4
M900 K0.05 ; Filament gcode LA 1.5
M900 K30 ; Filament gcode LA 1.0
M107
;LAYER_CHANGE
;Z:0.2
;HEIGHT:0.2
;BEFORE_LAYER_CHANGE
G92 E0.0
;0.2


G1 E-.8 F2100
G1 Z.4 F10800
;AFTER_LAYER_CHANGE
;0.2
G1 X146.22 Y75.384
G1 Z.2
M73 Q0 S79
G1 E.8 F2100
M204 S1000
;TYPE:Skirt/Brim
;WIDTH:0.42
G1 F1200
G1 X155.251 Y59.5 E.57293
G1 X156.24 Y58.559 E.04278
G1 X157.315 Y58.302 E.03467
G1 X167.881 Y58.302 E.33127
G1 X168.632 Y58.424 E.02388
G1 X182.604 Y63.081 E.46175
G1 X183.754 Y63.91 E.04445
G1 X190.739 Y73.224 E.36505
G1 X191.215 Y74.65 E.04714
G1 X191.215 Y82.887 E.25826
G1 X190.773 Y84.267 E.04541
G1 X181.558 Y97.185 E.49755
G1 X179.692 Y99.331 E.08915
G1 X177.551 Y101.202 E.08916
G1 X175.902 Y102.336 E.06276
G1 X174.143 Y103.311 E.06306
G1 X172.25 Y104.129 E.06465
G1 X170.238 Y104.77 E.06621
G1 X168.134 Y105.209 E.06738
G1 X166.043 Y105.427 E.06593
G1 X164.353 Y105.449 E.05299
G1 X162.193 Y105.277 E.06794
G1 X160.135 Y104.9 E.06559
G1 X158.096 Y104.307 E.06659
G1 X156.169 Y103.529 E.06514
G1 X154.376 Y102.592 E.06345
G1 X152.732 Y101.52 E.06152
G1 X151.194 Y100.298 E.0616
G1 X149.546 Y98.688 E.07223
G1 X148.327 Y97.227 E.05965
G1 X147.194 Y95.578 E.06276
G1 X146.219 Y93.819 E.06306
G1 X145.401 Y91.926 E.06465
G1 X144.759 Y89.914 E.06621
G1 X144.32 Y87.81 E.06738
G1 X144.103 Y85.719 E.06593
G1 X144.081 Y84.029 E.05299
G1 X144.252 Y81.869 E.06794
G1 X144.525 Y80.277 E.05064
G1 X144.918 Y78.721 E.05033
G1 X145.421 Y77.226 E.04945
G1 X146.196 Y75.439 E.06105
; printing object leather_rose_shaper_mod.stl id:0 copy 0
;WIPE_START
G1 F8640
G1 X147.822 Y72.578 E-.76
;WIPE_END
G1 E-.04 F2100
G1 Z.6 F10800
G1 X156.238 Y83.964
G1 Z.2
G1 E.8 F2100
;TYPE:Support material
G1 F1200
G1 X158.567 Y83.964 E.07301
G1 X158.567 Y88.621 E.14602
G1 X160.895 Y88.621 E.07301
G1 X160.895 Y90.95 E.07301
G1 X163.224 Y90.95 E.07301
G1 X163.224 Y99.063 E.25439
G1 X162.789 Y99.01 E.01372
M73 P1 R79
M73 Q1 S79
G1 X162.085 Y98.888 E.02241
G1 X161.388 Y98.731 E.02241
G1 X160.699 Y98.54 E.02242
G1 X160.02 Y98.316 E.02241
G1 X159.353 Y98.059 E.02241
G1 X158.699 Y97.769 E.02241
G1 X158.038 Y97.435 E.02323
G1 X157.439 Y97.095 E.0216
G1 X156.835 Y96.713 E.02241
G1 X156.25 Y96.301 E.02241
G1 X155.687 Y95.861 E.02241
G1 X155.127 Y95.377 E.02323
G1 X154.628 Y94.902 E.0216
G1 X154.135 Y94.384 E.02241
G1 X153.668 Y93.842 E.02241
G1 X153.228 Y93.279 E.02242
G1 X152.816 Y92.694 E.02241
G1 X152.434 Y92.09 E.02241
G1 X152.082 Y91.468 E.02241
G1 X151.76 Y90.83 E.02241
G1 X151.47 Y90.176 E.02241
G1 X151.213 Y89.509 E.02241
G1 X150.989 Y88.831 E.02242
G1 X150.798 Y88.142 E.02241
G1 X150.642 Y87.444 E.02241
G1 X150.519 Y86.74 E.02241
G1 X150.432 Y86.03 E.02242
G1 X150.379 Y85.317 E.02241
G1 X150.362 Y84.603 E.02241
G1 X150.379 Y83.888 E.02241
G1 X150.432 Y83.175 E.02241
G1 X150.519 Y82.465 E.02242
G1 X150.642 Y81.761 E.02241
G1 X150.798 Y81.064 E.02241
G1 X150.989 Y80.375 E.02241
G1 X151.213 Y79.696 E.02241
G1 X151.363 Y79.307 E.01306
G1 X156.238 Y79.307 E.15285
G1 X156.238 Y83.908 E.14425
G1 X162.832 Y98.844 F10800
G1 F1200
G1 X162.832 Y91.289 E.23687
G1 X162.413 Y91.289 E.01314
G1 X162.413 Y98.6 E.22922
G1 X161.994 Y98.519 E.01338
G1 X161.994 Y91.289 E.22669
G1 X161.575 Y91.289 E.01314
G1 X161.575 Y98.425 E.22374
G1 X161.156 Y98.315 E.01359
G1 X161.156 Y91.289 E.22027
G1 X160.737 Y91.289 E.01314
G1 X160.737 Y98.196 E.21654
G1 X160.318 Y98.057 E.01384
G1 X160.318 Y88.961 E.28521
G1 X159.899 Y88.961 E.01314
G1 X159.899 Y97.906 E.28046
G1 X159.48 Y97.744 E.01408
G1 X159.48 Y88.961 E.27538
G1 X159.061 Y88.961 E.01314
G1 X159.061 Y97.558 E.26956
G1 X158.642 Y97.36 E.01453
G1 X158.642 Y88.961 E.26336
G1 X158.227 Y88.961 E.013
G1 X158.227 Y84.304 E.14602
G1 X158.223 Y97.149 E.40276
G1 X157.804 Y96.912 E.0151
G1 X157.804 Y84.304 E.39533
G1 X157.385 Y84.304 E.01314
G1 X157.385 Y96.66 E.38741
G1 X156.966 Y96.39 E.01562
G1 X156.966 Y84.304 E.37896
G1 X156.547 Y84.304 E.01314
G1 X156.547 Y96.095 E.36971
G1 X156.128 Y95.775 E.01653
G1 X156.128 Y84.304 E.35968
G1 X155.899 Y84.304 E.00719
G1 X155.899 Y79.647 E.14602
G1 X155.709 Y79.647 E.00594
G1 X155.709 Y95.432 E.49495
G1 X155.29 Y95.064 E.0175
G1 X155.29 Y79.647 E.48339
G1 X154.871 Y79.647 E.01314
G1 X154.871 Y94.665 E.47088
G1 X154.452 Y94.225 E.01904
G1 X154.452 Y79.647 E.45709
G1 X154.033 Y79.647 E.01314
G1 X154.033 Y93.746 E.44209
G1 X153.614 Y93.222 E.02104
G1 X153.614 Y79.647 E.42565
G1 X153.195 Y79.647 E.01314
G1 X153.195 Y92.643 E.40749
G1 X153.099 Y92.506 E.00526
G1 X152.776 Y91.997 E.01889
G1 X152.776 Y79.647 E.38723
G1 X152.357 Y79.647 E.01314
G1 X152.357 Y91.261 E.36417
G1 X151.938 Y90.394 E.03019
G1 X151.938 Y79.647 E.33699
G1 X151.596 Y79.647 E.01074
G1 X151.519 Y79.851 E.00684
G1 X151.519 Y89.354 E.29798
G1 X151.314 Y88.732 E.02055
G1 X151.1 Y87.938 E.02578
G1 X151.1 Y80.608 E.22983
;WIPE_START
G1 F8640
G1 X151.1 Y83.899 E-.76
;WIPE_END
G1 E-.04 F2100
G1 Z.6 F10800
G1 X165.615 Y70.055
G1 Z.2
G1 E.8 F2100
G1 F1200
G1 X166.354 Y70.108 E.02323
G1 X167.064 Y70.195 E.02241
G1 X167.768 Y70.318 E.02241
G1 X168.466 Y70.474 E.02241
G1 X169.155 Y70.665 E.02241
G1 X169.833 Y70.889 E.02242
G1 X170.5 Y71.146 E.02241
G1 X171.154 Y71.436 E.02241
G1 X171.792 Y71.757 E.02241
G1 X172.414 Y72.11 E.02241
G1 X172.996 Y72.478 E.0216
G1 X173.603 Y72.904 E.02323
G1 X174.166 Y73.344 E.02241
G1 X174.708 Y73.811 E.02241
G1 X175.226 Y74.304 E.02241
G1 X175.718 Y74.821 E.02241
G1 X176.185 Y75.363 E.02241
G1 X176.609 Y75.906 E.0216
G1 X177.037 Y76.511 E.02323
G1 X177.195 Y76.76 E.00927
G1 X177.195 Y78.23 E.04608
G1 X152.658 Y78.23 E.76933
G1 X152.658 Y76.76 E.04608
G1 X153.228 Y75.926 E.03167
G1 X153.668 Y75.363 E.02242
G1 X154.135 Y74.821 E.02241
G1 X154.628 Y74.304 E.02242
G1 X155.145 Y73.811 E.02241
G1 X155.687 Y73.344 E.02242
G1 X156.25 Y72.904 E.02241
G1 X156.835 Y72.492 E.02241
M73 P1 R78
G1 X157.439 Y72.11 E.02241
G1 X158.061 Y71.758 E.02241
G1 X158.699 Y71.436 E.02242
G1 X159.353 Y71.146 E.02241
G1 X160.02 Y70.889 E.02241
G1 X160.699 Y70.665 E.02241
G1 X161.388 Y70.474 E.02242
G1 X162.085 Y70.318 E.02241
G1 X162.789 Y70.195 E.02241
G1 X163.499 Y70.108 E.02242
G1 X164.212 Y70.055 E.02241
G1 X164.927 Y70.038 E.02241
G1 X165.559 Y70.053 E.01983
G1 X176.658 Y78.06 F10800
G1 F1200
G1 X176.658 Y76.562 E.04697
G1 X176.239 Y75.983 E.02241
G1 X176.239 Y77.891 E.05981
G1 X175.82 Y77.891 E.01314
G1 X175.82 Y75.459 E.07625
G1 X175.401 Y74.98 E.01994
G1 X175.401 Y77.891 E.09126
G1 X174.982 Y77.891 E.01314
G1 X174.982 Y74.54 E.10504
G1 X174.563 Y74.142 E.01814
G1 X174.563 Y77.891 E.11755
G1 X174.144 Y77.891 E.01314
G1 X174.144 Y73.773 E.12912
G1 X173.725 Y73.43 E.01697
G1 X173.725 Y77.891 E.13987
G1 X173.306 Y77.891 E.01314
G1 X173.306 Y73.11 E.14989
G1 X172.887 Y72.815 E.01607
G1 X172.887 Y77.891 E.15914
G1 X172.468 Y77.891 E.01314
G1 X172.468 Y72.546 E.16759
G1 X172.049 Y72.293 E.01534
G1 X172.049 Y77.891 E.17551
G1 X171.63 Y77.891 E.01314
G1 X171.63 Y72.056 E.18295
G1 X171.211 Y71.845 E.01471
G1 X171.211 Y77.891 E.18956
G1 X170.792 Y77.891 E.01314
G1 X170.792 Y71.647 E.19577
G1 X170.373 Y71.461 E.01437
G1 X170.373 Y77.891 E.20159
G1 X169.954 Y77.891 E.01314
G1 X169.954 Y71.3 E.20666
G1 X169.535 Y71.148 E.01397
G1 X169.535 Y77.891 E.21141
G1 X169.116 Y77.891 E.01314
G1 X169.116 Y71.01 E.21575
G1 X168.697 Y70.89 E.01366
G1 X168.697 Y77.891 E.21949
G1 X168.278 Y77.891 E.01314
G1 X168.278 Y70.78 E.22295
G1 X167.859 Y70.686 E.01346
G1 X167.859 Y77.891 E.2259
G1 X167.44 Y77.891 E.01314
G1 X167.44 Y70.605 E.22843
G1 X167.021 Y70.532 E.01333
G1 X167.021 Y77.891 E.23071
G1 X166.603 Y77.891 E.01314
G1 X166.603 Y70.48 E.23234
G1 X166.321 Y70.446 E.0089
G1 X166.184 Y70.436 E.00432
G1 X166.184 Y77.891 E.23375
G1 X165.765 Y77.891 E.01314
G1 X165.765 Y70.405 E.23472
G1 X165.346 Y70.387 E.01315
G1 X165.346 Y77.891 E.23526
G1 X164.927 Y77.891 E.01314
G1 X164.927 Y70.377 E.23558
G1 X164.508 Y70.387 E.01314
G1 X164.508 Y77.891 E.23526
G1 X164.089 Y77.891 E.01314
G1 X164.089 Y70.405 E.23472
G1 X163.67 Y70.436 E.01317
G1 X163.67 Y77.891 E.23375
G1 X163.251 Y77.891 E.01314
G1 X163.251 Y70.48 E.23234
G1 X162.832 Y70.532 E.01324
G1 X162.832 Y77.891 E.23071
G1 X162.413 Y77.891 E.01314
G1 X162.413 Y70.605 E.22843
G1 X161.994 Y70.686 E.01338
G1 X161.994 Y77.891 E.2259
G1 X161.575 Y77.891 E.01314
G1 X161.575 Y70.78 E.22295
G1 X161.156 Y70.89 E.01359
G1 X161.156 Y77.891 E.21949
G1 X160.737 Y77.891 E.01314
G1 X160.737 Y71.01 E.21575
G1 X160.318 Y71.148 E.01384
G1 X160.318 Y77.891 E.21141
G1 X159.899 Y77.891 E.01314
G1 X159.899 Y71.3 E.20666
G1 X159.48 Y71.461 E.01408
G1 X159.48 Y77.891 E.20159
G1 X159.061 Y77.891 E.01314
G1 X159.061 Y71.647 E.19577
G1 X158.642 Y71.845 E.01453
G1 X158.642 Y77.891 E.18956
G1 X158.223 Y77.891 E.01314
G1 X158.223 Y72.056 E.18295
G1 X157.804 Y72.293 E.0151
G1 X157.804 Y77.891 E.17551
G1 X157.385 Y77.891 E.01314
G1 X157.385 Y72.546 E.16759
G1 X156.966 Y72.815 E.01562
G1 X156.966 Y77.891 E.15914
G1 X156.547 Y77.891 E.01314
G1 X156.547 Y73.11 E.14989
G1 X156.128 Y73.43 E.01653
G1 X156.128 Y77.891 E.13987
G1 X155.709 Y77.891 E.01314
G1 X155.709 Y73.773 E.12912
G1 X155.29 Y74.142 E.0175
G1 X155.29 Y77.891 E.11755
G1 X154.871 Y77.891 E.01314
G1 X154.871 Y74.54 E.10504
G1 X154.452 Y74.98 E.01904
G1 X154.452 Y77.891 E.09126
G1 X154.033 Y77.891 E.01314
G1 X154.033 Y75.459 E.07625
G1 X153.614 Y75.983 E.02104
G1 X153.614 Y77.891 E.05981
G1 X153.195 Y77.891 E.01314
G1 X153.195 Y76.267 E.05089
;WIPE_START
G1 F8640
G1 X153.195 Y77.891 E-.3748
G1 X153.614 Y77.891 E-.09674
G1 X153.614 Y76.641 E-.28846
;WIPE_END
G1 E-.04 F2100
G1 Z.6 F10800
G1 X167.881 Y66.029
G1 Z.2
G1 E.8 F2100
G1 F1200
G1 X166.883 Y65.897 E.03157
G1 X165.911 Y65.821 E.03056
G1 X165.415 Y65.801 E.01557
G1 X164.924 Y65.795 E.0154
G1 X163.948 Y65.82 E.03061
G1 X163.453 Y65.853 E.01556
G1 X162.485 Y65.955 E.03052
G1 X161.996 Y66.025 E.01549
G1 X161.044 Y66.201 E.03033
G1 X159.641 Y66.554 E.04538
G1 X158.286 Y67.005 E.04476
G1 X157.315 Y67.405 E.03293
G1 X157.315 Y60.679 E.21089
G1 X167.881 Y60.679 E.33127
G1 X167.881 Y65.973 E.16598
G1 X167.44 Y65.793 F10800
G1 F1200
G1 X167.44 Y61.018 E.14972
G1 X167.021 Y61.018 E.01314
G1 X167.021 Y65.572 E.14277
G1 X166.603 Y65.531 E.0132
G1 X166.603 Y61.018 E.14148
G1 X166.184 Y61.018 E.01314
G1 X166.184 Y65.498 E.14047
G1 X165.765 Y65.475 E.01316
G1 X165.765 Y61.018 E.13974
G1 X165.346 Y61.018 E.01314
G1 X165.346 Y65.461 E.13929
G1 X164.927 Y65.455 E.01314
G1 X164.927 Y61.018 E.13912
G1 X164.508 Y61.018 E.01314
G1 X164.508 Y65.461 E.13929
G1 X164.089 Y65.475 E.01314
G1 X164.089 Y61.018 E.13974
G1 X163.67 Y61.018 E.01314
G1 X163.67 Y65.499 E.14047
G1 X163.251 Y65.531 E.01318
G1 X163.251 Y61.018 E.14148
G1 X162.832 Y61.018 E.01314
G1 X162.832 Y65.572 E.14277
G1 X162.413 Y65.622 E.01323
G1 X162.413 Y61.018 E.14434
G1 X161.994 Y61.018 E.01314
G1 X161.994 Y65.683 E.14624
G1 X161.575 Y65.753 E.01332
G1 X161.575 Y61.018 E.14845
G1 X161.156 Y61.018 E.01314
G1 X161.156 Y65.833 E.15095
G1 X160.737 Y65.922 E.01343
G1 X160.737 Y61.018 E.15375
G1 X160.318 Y61.018 E.01314
G1 X160.318 Y66.021 E.15685
G1 X159.899 Y66.129 E.01357
G1 X159.899 Y61.018 E.16025
M73 P2 R78
G1 X159.48 Y61.018 E.01314
M73 Q2 S79
G1 X159.48 Y66.248 E.16397
G1 X159.061 Y66.377 E.01374
G1 X159.061 Y61.018 E.168
G1 X158.642 Y61.018 E.01314
G1 X158.642 Y66.516 E.17239
G1 X158.223 Y66.667 E.01396
G1 X158.223 Y61.018 E.17712
G1 X157.804 Y61.018 E.01314
G1 X157.804 Y67.012 E.18794
;WIPE_START
G1 F8640
M73 Q2 S78
G1 X157.804 Y63.721 E-.76
;WIPE_END
G1 E-.04 F2100
G1 Z.6 F10800
G1 X178.631 Y79.672
G1 Z.2
G1 E.8 F2100
G1 F1200
G1 X178.864 Y80.375 E.02323
G1 X179.055 Y81.064 E.02241
G1 X179.212 Y81.761 E.02241
G1 X179.334 Y82.465 E.02241
G1 X179.421 Y83.175 E.02242
G1 X179.474 Y83.888 E.02241
G1 X179.491 Y84.603 E.02241
G1 X179.474 Y85.317 E.02241
G1 X179.421 Y86.03 E.02241
G1 X179.334 Y86.74 E.02241
G1 X179.212 Y87.444 E.02241
G1 X179.055 Y88.142 E.02241
G1 X178.864 Y88.831 E.02242
G1 X178.648 Y89.485 E.0216
G1 X178.383 Y90.176 E.02323
G1 X178.093 Y90.83 E.02241
G1 X177.772 Y91.468 E.02241
G1 X177.419 Y92.09 E.02241
G1 X177.037 Y92.694 E.02241
G1 X176.625 Y93.279 E.02242
G1 X176.185 Y93.842 E.02241
G1 X175.718 Y94.384 E.02241
G1 X175.226 Y94.902 E.02242
G1 X174.688 Y95.411 E.02323
G1 X174.166 Y95.861 E.0216
G1 X173.603 Y96.301 E.02242
G1 X173.018 Y96.713 E.02241
G1 X172.392 Y97.108 E.02323
G1 X171.792 Y97.448 E.0216
G1 X171.154 Y97.769 E.02241
G1 X170.5 Y98.059 E.02241
G1 X169.833 Y98.316 E.02242
G1 X169.155 Y98.54 E.02241
G1 X168.466 Y98.731 E.02241
G1 X167.768 Y98.888 E.02241
G1 X167.064 Y99.01 E.02241
G1 X166.63 Y99.063 E.01372
G1 X166.63 Y90.95 E.25439
G1 X168.958 Y90.95 E.07301
G1 X168.958 Y88.621 E.07301
G1 X171.287 Y88.621 E.07301
G1 X171.287 Y83.964 E.14602
G1 X173.615 Y83.964 E.07301
G1 X173.615 Y79.307 E.14602
G1 X178.49 Y79.307 E.15285
G1 X178.61 Y79.619 E.01047
G1 X178.753 Y88.597 F10800
G1 F1200
G1 X178.753 Y81.267 E.22983
G1 X178.539 Y80.473 E.02578
G1 X178.334 Y79.851 E.02055
G1 X178.334 Y89.354 E.29797
G1 X178.069 Y90.046 E.02323
G1 X177.915 Y90.394 E.01194
G1 X177.915 Y79.647 E.33699
G1 X177.496 Y79.647 E.01314
G1 X177.496 Y91.261 E.36417
G1 X177.077 Y91.997 E.02653
G1 X177.077 Y79.647 E.38723
G1 X176.658 Y79.647 E.01314
G1 X176.658 Y92.643 E.40749
G1 X176.239 Y93.222 E.02241
G1 X176.239 Y79.647 E.42565
G1 X175.82 Y79.647 E.01314
G1 X175.82 Y93.746 E.44209
G1 X175.401 Y94.225 E.01994
G1 X175.401 Y79.647 E.45709
G1 X174.982 Y79.647 E.01314
G1 X174.982 Y94.665 E.47088
G1 X174.563 Y95.064 E.01814
G1 X174.563 Y79.647 E.48339
G1 X174.144 Y79.647 E.01314
G1 X174.144 Y95.432 E.49495
G1 X173.725 Y95.775 E.01697
G1 X173.725 Y84.304 E.35968
G1 X173.306 Y84.304 E.01314
G1 X173.306 Y96.095 E.36971
G1 X172.887 Y96.39 E.01607
G1 X172.887 Y84.304 E.37896
G1 X172.468 Y84.304 E.01314
G1 X172.468 Y96.66 E.38741
G1 X172.049 Y96.912 E.01534
G1 X172.049 Y84.304 E.39533
G1 X171.63 Y84.304 E.01314
G1 X171.63 Y97.149 E.40276
G1 X171.211 Y97.36 E.01471
G1 X171.211 Y88.961 E.26336
G1 X170.792 Y88.961 E.01314
G1 X170.792 Y97.558 E.26956
G1 X170.373 Y97.744 E.01437
G1 X170.373 Y88.961 E.27538
G1 X169.954 Y88.961 E.01314
G1 X169.954 Y97.906 E.28046
G1 X169.535 Y98.057 E.01397
G1 X169.535 Y88.961 E.28521
G1 X169.297 Y88.961 E.00746
G1 X169.297 Y91.289 E.07301
G1 X169.116 Y91.289 E.00568
G1 X169.116 Y98.196 E.21654
G1 X168.697 Y98.315 E.01366
G1 X168.697 Y91.289 E.22027
G1 X168.278 Y91.289 E.01314
G1 X168.278 Y98.425 E.22374
G1 X167.859 Y98.519 E.01346
G1 X167.859 Y91.289 E.22669
G1 X167.44 Y91.289 E.01314
G1 X167.44 Y98.6 E.22922
G1 X167.021 Y98.673 E.01333
G1 X167.021 Y91.12 E.23682
;WIPE_START
G1 F8640
G1 X167.021 Y94.411 E-.76
