; generated by PrusaSlicer 2.4.1 on 2022-04-07 at 08:33:49 UTC

; 

; external perimeters extrusion width = 0.45mm
; perimeters extrusion width = 0.45mm
; infill extrusion width = 0.45mm
; solid infill extrusion width = 0.45mm
; top infill extrusion width = 0.40mm
; support material extrusion width = 0.35mm
; first layer extrusion width = 0.42mm

M73 P0 R23
M73 Q0 S23
M107
;TYPE:Custom
M862.3 P "MK3SMMU2S" ; printer model check
M862.1 P0.4 ; nozzle diameter check
M115 U3.10.0 ; tell printer latest fw version
G90 ; use absolute coordinates
M83 ; extruder relative mode
M104 S215 ; set extruder temp
M140 S60 ; set bed temp
M190 S60 ; wait for bed temp
M109 S215 ; wait for extruder temp
G28 W ; home all without mesh bed level
G80 ; mesh bed leveling

; Send the filament type to the MMU2.0 unit.
; E stands for extruder number, F stands for filament type (0: default; 1:flex; 2: PVA)
M403 E0 F0
M403 E1 F0
M403 E2 F0
M403 E3 F0
M403 E4 F0


;go outside print area
G1 Y-3.0 F1000.0
G1 Z0.4 F1000.0
; select extruder
T4
; initial load
M73 P1 R23
M73 Q1 S23
G1 X55.0 E29.0 F1073.0
G1 X5.0 E29.0 F1800.0
G1 X55.0 E8.0 F2000.0
G1 Z0.3 F1000.0
G92 E0.0
G1 X240.0 E25.0 F2200.0
G1 Y-2.0 F1000.0
G1 X55.0 E25 F1400.0
G1 Z0.20 F1000.0
M73 P2 R23
M73 Q2 S23
G1 X5.0 E4.0 F1000.0
G92 E0.0


M221 S95
G92 E0.0

; Don't change E values below. Excessive value can damage the printer.
M907 E430 ; set extruder motor current
G21 ; set units to millimeters
G90 ; use absolute coordinates
M83 ; use relative distances for extrusion
T4
M900 K0.05 ; Filament gcode LA 1.5
M900 K30 ; Filament gcode LA 1.0
M107
;LAYER_CHANGE
;Z:0.2
;HEIGHT:0.2
;BEFORE_LAYER_CHANGE
G92 E0.0
;0.2


G1 E-.8 F2100
G1 Z.4 F10800
;AFTER_LAYER_CHANGE
;0.2
G1 X113.95 Y95.844
G1 Z.2
G1 E.8 F2100
M204 S1000
;TYPE:Skirt/Brim
;WIDTH:0.42
G1 F1200
G1 X114.871 Y94.835 E.04284
G1 X116.043 Y93.789 E.04924
G1 X117.126 Y93.003 E.04197
G1 X118.305 Y92.309 E.0429
G1 X119.58 Y91.714 E.04411
G1 X120.947 Y91.236 E.0454
G1 X122.374 Y90.894 E.04601
G1 X123.846 Y90.698 E.04655
G1 X125.074 Y90.652 E.03852
G1 X126.524 Y90.733 E.04554
G1 X127.92 Y90.952 E.0443
G1 X129.052 Y91.236 E.03661
G1 X130.42 Y91.714 E.04543
G1 X131.693 Y92.308 E.04406
G1 X132.874 Y93.003 E.04295
G1 X134.164 Y93.958 E.05032
G1 X135.173 Y94.879 E.04284
G1 X136.219 Y96.051 E.04924
G1 X137.004 Y97.134 E.04197
G1 X137.699 Y98.313 E.0429
G1 X138.294 Y99.588 E.04411
G1 X138.772 Y100.955 E.04541
G1 X139.113 Y102.382 E.04601
G1 X139.309 Y103.854 E.04655
G1 X139.356 Y105.044 E.03734
G1 X139.282 Y106.462 E.04453
G1 X139.092 Y107.741 E.04054
G1 X138.772 Y109.06 E.04256
G1 X138.294 Y110.428 E.04543
G1 X137.7 Y111.701 E.04405
G1 X137.004 Y112.882 E.04296
G1 X136.05 Y114.172 E.05032
G1 X135.129 Y115.181 E.04284
G1 X133.957 Y116.227 E.04924
G1 X132.874 Y117.012 E.04196
G1 X131.695 Y117.707 E.0429
G1 X130.42 Y118.302 E.04411
G1 X129.053 Y118.779 E.0454
G1 X127.626 Y119.121 E.04601
G1 X126.154 Y119.317 E.04655
G1 X124.964 Y119.364 E.03734
G1 X123.546 Y119.29 E.04453
G1 X122.267 Y119.1 E.04054
G1 X120.948 Y118.78 E.04256
G1 X119.58 Y118.302 E.04543
G1 X118.307 Y117.708 E.04405
G1 X117.126 Y117.012 E.04296
G1 X115.836 Y116.058 E.05032
G1 X114.827 Y115.137 E.04284
G1 X113.781 Y113.965 E.04924
G1 X112.996 Y112.882 E.04197
G1 X112.301 Y111.703 E.0429
G1 X111.706 Y110.428 E.04411
G1 X111.228 Y109.061 E.04541
G1 X110.887 Y107.634 E.04601
G1 X110.691 Y106.162 E.04655
G1 X110.644 Y104.972 E.03734
G1 X110.718 Y103.554 E.04453
M73 Q3 S23
G1 X110.908 Y102.275 E.04054
G1 X111.228 Y100.956 E.04256
M73 P3 R23
G1 X111.706 Y99.588 E.04543
G1 X112.3 Y98.315 E.04405
G1 X112.996 Y97.134 E.04296
G1 X113.914 Y95.892 E.04844
G1 X114.217 Y96.116 F10800
G1 F1200
G1 X115.135 Y95.104 E.04282
G1 X116.281 Y94.082 E.04816
G1 X117.336 Y93.317 E.04085
G1 X118.484 Y92.641 E.04179
G1 X119.726 Y92.062 E.04297
G1 X121.057 Y91.597 E.0442
G1 X122.447 Y91.264 E.04481
G1 X123.88 Y91.074 E.04533
G1 X125.069 Y91.029 E.03729
G1 X126.48 Y91.108 E.04431
G1 X127.847 Y91.322 E.04338
G1 X128.942 Y91.597 E.03542
G1 X130.274 Y92.062 E.04422
G1 X131.515 Y92.64 E.04292
G1 X132.664 Y93.317 E.04183
G1 X133.926 Y94.25 E.0492
G1 X134.903 Y95.142 E.0415
G1 X135.926 Y96.289 E.04816
G1 X136.691 Y97.344 E.04085
G1 X137.367 Y98.492 E.04179
G1 X137.946 Y99.734 E.04296
G1 X138.411 Y101.065 E.0442
G1 X138.743 Y102.455 E.04481
G1 X138.934 Y103.888 E.04533
G1 X138.979 Y105.039 E.03611
G1 X138.906 Y106.428 E.04361
G1 X138.722 Y107.668 E.03932
G1 X138.411 Y108.95 E.04137
G1 X137.946 Y110.282 E.04422
G1 X137.368 Y111.522 E.04292
G1 X136.691 Y112.672 E.04183
G1 X135.758 Y113.934 E.0492
G1 X134.865 Y114.911 E.0415
G1 X133.719 Y115.934 E.04816
G1 X132.664 Y116.699 E.04085
G1 X131.516 Y117.375 E.04179
G1 X130.274 Y117.954 E.04297
G1 X128.943 Y118.419 E.0442
G1 X127.553 Y118.751 E.04481
G1 X126.12 Y118.942 E.04533
G1 X124.969 Y118.987 E.03611
G1 X123.58 Y118.914 E.04361
G1 X122.34 Y118.73 E.03932
G1 X121.058 Y118.419 E.04137
G1 X119.726 Y117.954 E.04422
G1 X118.486 Y117.376 E.04292
G1 X117.336 Y116.699 E.04183
G1 X116.074 Y115.766 E.0492
G1 X115.097 Y114.873 E.0415
G1 X114.074 Y113.727 E.04816
G1 X113.309 Y112.672 E.04085
G1 X112.633 Y111.524 E.04179
G1 X112.054 Y110.282 E.04296
G1 X111.589 Y108.951 E.0442
G1 X111.257 Y107.561 E.04481
G1 X111.066 Y106.128 E.04533
G1 X111.021 Y104.977 E.03611
G1 X111.094 Y103.588 E.04361
G1 X111.277 Y102.35 E.03926
G1 X111.589 Y101.066 E.04143
G1 X112.054 Y99.734 E.04423
G1 X112.632 Y98.493 E.04292
G1 X113.309 Y97.344 E.04183
G1 X114.181 Y96.164 E.04599
; printing object leather_rose_shaper_mod.stl id:0 copy 0
;WIPE_START
G1 F8640
G1 X115.135 Y95.104 E-.32915
G1 X116.281 Y94.082 E-.35469
G1 X116.548 Y93.888 E-.07617
;WIPE_END
G1 E-.04 F2100
G1 Z.6 F10800
G1 X117.144 Y98.561
G1 Z.2
G1 E.8 F2100
;TYPE:Perimeter
G1 F1200
G1 X117.814 Y97.822 E.03127
G1 X118.553 Y97.152 E.03127
G1 X119.354 Y96.558 E.03127
G1 X120.209 Y96.045 E.03127
G1 X121.111 Y95.619 E.03127
G1 X122.05 Y95.283 E.03127
G1 X123.017 Y95.04 E.03127
G1 X124.004 Y94.894 E.03126
G1 X124.95 Y94.846 E.0297
G1 X125.497 Y94.858 E.01718
G1 X126.003 Y94.895 E.0159
G1 X126.983 Y95.04 E.03105
G1 X127.95 Y95.283 E.03127
G1 X128.889 Y95.619 E.03127
G1 X129.791 Y96.045 E.03127
G1 X130.646 Y96.558 E.03127
G1 X131.447 Y97.152 E.03127
G1 X132.186 Y97.822 E.03127
G1 X132.856 Y98.561 E.03127
G1 X133.45 Y99.362 E.03127
G1 X133.963 Y100.217 E.03127
G1 X134.389 Y101.119 E.03127
G1 X134.725 Y102.058 E.03127
G1 X134.968 Y103.025 E.03127
G1 X135.114 Y104.012 E.03127
G1 X135.163 Y105.008 E.03127
G1 X135.114 Y106.004 E.03127
G1 X134.968 Y106.991 E.03127
G1 X134.725 Y107.958 E.03127
G1 X134.389 Y108.897 E.03127
G1 X133.963 Y109.799 E.03127
G1 X133.45 Y110.654 E.03127
G1 X132.856 Y111.455 E.03127
G1 X132.186 Y112.194 E.03127
G1 X131.447 Y112.864 E.03127
G1 X130.646 Y113.458 E.03127
G1 X129.791 Y113.971 E.03127
G1 X128.889 Y114.397 E.03127
G1 X127.95 Y114.733 E.03127
G1 X126.983 Y114.975 E.03127
G1 X125.996 Y115.122 E.03127
G1 X125 Y115.171 E.03127
G1 X124.004 Y115.122 E.03127
G1 X123.017 Y114.975 E.03127
G1 X122.05 Y114.733 E.03127
G1 X121.111 Y114.397 E.03127
G1 X120.209 Y113.971 E.03127
G1 X119.354 Y113.458 E.03127
G1 X118.553 Y112.864 E.03127
G1 X117.814 Y112.194 E.03127
G1 X117.144 Y111.455 E.03127
G1 X116.55 Y110.654 E.03127
G1 X116.037 Y109.799 E.03127
G1 X115.611 Y108.897 E.03127
G1 X115.275 Y107.958 E.03127
G1 X115.032 Y106.991 E.03127
G1 X114.886 Y106.004 E.03127
G1 X114.837 Y105.008 E.03127
G1 X114.886 Y104.012 E.03127
G1 X115.032 Y103.025 E.03127
G1 X115.275 Y102.058 E.03127
G1 X115.611 Y101.119 E.03127
G1 X116.037 Y100.217 E.03127
G1 X116.55 Y99.362 E.03127
G1 X117.108 Y98.609 E.02939
G1 X117.436 Y98.8 F10800
;TYPE:External perimeter
G1 F1200
G1 X118.081 Y98.089 E.03011
G1 X118.792 Y97.444 E.03011
G1 X119.564 Y96.872 E.03011
G1 X120.387 Y96.378 E.03011
G1 X121.255 Y95.967 E.03011
G1 X122.159 Y95.644 E.03011
G1 X123.091 Y95.411 E.03011
G1 X124.041 Y95.27 E.03011
G1 X124.955 Y95.224 E.02871
G1 X125.48 Y95.234 E.01645
G1 X125.962 Y95.27 E.01515
G1 X126.909 Y95.411 E.03003
G1 X127.841 Y95.644 E.03011
G1 X128.745 Y95.967 E.03011
G1 X129.613 Y96.378 E.03011
G1 X130.436 Y96.872 E.03011
G1 X131.208 Y97.444 E.03011
G1 X131.919 Y98.089 E.03011
G1 X132.564 Y98.8 E.03011
G1 X133.136 Y99.571 E.03011
G1 X133.63 Y100.395 E.03011
G1 X134.04 Y101.263 E.03011
G1 X134.364 Y102.167 E.03011
G1 X134.597 Y103.099 E.03011
G1 X134.738 Y104.049 E.03011
G1 X134.785 Y105.008 E.03011
G1 X134.738 Y105.967 E.03011
G1 X134.597 Y106.917 E.03011
G1 X134.364 Y107.848 E.03011
G1 X134.04 Y108.753 E.03011
G1 X133.63 Y109.621 E.03011
G1 X133.136 Y110.444 E.03011
G1 X132.564 Y111.216 E.03011
G1 X131.919 Y111.927 E.03011
G1 X131.208 Y112.572 E.03011
G1 X130.436 Y113.144 E.03011
M73 P3 R22
G1 X129.613 Y113.638 E.03011
G1 X128.745 Y114.048 E.03011
G1 X127.841 Y114.372 E.03011
G1 X126.909 Y114.605 E.03011
G1 X125.959 Y114.746 E.03011
G1 X125 Y114.793 E.03011
G1 X124.041 Y114.746 E.03011
G1 X123.091 Y114.605 E.03011
G1 X122.159 Y114.372 E.03011
G1 X121.255 Y114.048 E.03011
G1 X120.387 Y113.638 E.03011
G1 X119.564 Y113.144 E.03011
G1 X118.792 Y112.572 E.03011
G1 X118.081 Y111.927 E.03011
G1 X117.436 Y111.216 E.03011
G1 X116.864 Y110.444 E.03011
G1 X116.37 Y109.621 E.03011
G1 X115.96 Y108.753 E.03011
G1 X115.636 Y107.848 E.03011
G1 X115.403 Y106.917 E.03011
G1 X115.262 Y105.967 E.03011
G1 X115.215 Y105.008 E.03011
G1 X115.262 Y104.049 E.03011
G1 X115.403 Y103.099 E.03011
G1 X115.636 Y102.167 E.03011
G1 X115.96 Y101.263 E.03011
G1 X116.37 Y100.395 E.03011
G1 X116.864 Y99.571 E.03011
G1 X117.4 Y98.848 E.02823
G1 X117.295 Y98.426 F10800
G1 X116.702 Y98.243
;TYPE:Perimeter
G1 F1200
G1 X117.091 Y97.784 E.01884
G1 X117.598 Y97.266 E.02276
G1 X118.142 Y96.78 E.02286
G1 X118.924 Y96.186 E.0308
G1 X119.786 Y95.651 E.03179
G1 X120.246 Y95.409 E.0163
G1 X120.724 Y95.186 E.01653
G1 X121.218 Y94.986 E.01672
G1 X121.729 Y94.808 E.01696
G1 X122.253 Y94.655 E.01713
G1 X122.789 Y94.527 E.01727
G1 X123.334 Y94.427 E.01737
G1 X123.885 Y94.354 E.01745
G1 X124.438 Y94.311 E.01737
G1 X125.279 Y94.3 E.02639
G1 X126.118 Y94.355 E.02636
G1 X126.666 Y94.427 E.01733
G1 X127.211 Y94.527 E.01737
G1 X127.747 Y94.655 E.01727
G1 X128.271 Y94.808 E.01713
G1 X128.782 Y94.986 E.01696
G1 X129.276 Y95.187 E.01673
G1 X129.754 Y95.409 E.01653
G1 X130.214 Y95.651 E.0163
G1 X131.07 Y96.182 E.03158
G1 X131.866 Y96.786 E.03132
G1 X132.223 Y97.099 E.01488
G1 X132.742 Y97.606 E.02276
G1 X133.228 Y98.15 E.02286
G1 X133.822 Y98.932 E.0308
G1 X134.357 Y99.794 E.03179
G1 X134.599 Y100.254 E.0163
G1 X134.821 Y100.732 E.01653
G1 X135.022 Y101.226 E.01672
G1 X135.2 Y101.737 E.01696
G1 X135.353 Y102.261 E.01713
G1 X135.481 Y102.797 E.01727
G1 X135.581 Y103.341 E.01737
G1 X135.654 Y103.893 E.01745
G1 X135.697 Y104.446 E.01737
G1 X135.708 Y105.287 E.02639
G1 X135.653 Y106.126 E.02636
G1 X135.581 Y106.674 E.01732
G1 X135.481 Y107.219 E.01737
G1 X135.353 Y107.755 E.01727
G1 X135.2 Y108.279 E.01713
G1 X135.022 Y108.79 E.01696
G1 X134.821 Y109.284 E.01672
G1 X134.599 Y109.762 E.01653
G1 X134.357 Y110.222 E.0163
G1 X133.826 Y111.078 E.03158
G1 X133.221 Y111.874 E.03132
G1 X132.909 Y112.231 E.01488
G1 X132.402 Y112.75 E.02275
G1 X131.858 Y113.236 E.02286
G1 X131.076 Y113.83 E.0308
G1 X130.214 Y114.364 E.03179
G1 X129.754 Y114.606 E.0163
G1 X129.276 Y114.829 E.01653
G1 X128.782 Y115.03 E.01672
G1 X128.271 Y115.207 E.01696
G1 X127.747 Y115.361 E.01713
G1 X127.211 Y115.488 E.01727
M73 Q3 S22
G1 X126.666 Y115.589 E.01737
G1 X126.115 Y115.662 E.01745
G1 X125.562 Y115.705 E.01737
G1 X124.721 Y115.716 E.02639
G1 X123.882 Y115.661 E.02636
G1 X123.334 Y115.589 E.01733
G1 X122.789 Y115.488 E.01737
G1 X122.253 Y115.361 E.01727
G1 X121.729 Y115.207 E.01713
G1 X121.218 Y115.03 E.01696
G1 X120.724 Y114.829 E.01672
G1 X120.246 Y114.606 E.01653
G1 X119.786 Y114.364 E.0163
G1 X118.93 Y113.834 E.03159
G1 X118.134 Y113.229 E.03132
G1 X117.777 Y112.917 E.01488
G1 X117.258 Y112.41 E.02275
G1 X116.772 Y111.866 E.02286
G1 X116.178 Y111.084 E.0308
M73 Q4 S22
G1 X115.643 Y110.222 E.03179
G1 X115.401 Y109.762 E.0163
M73 P4 R22
G1 X115.179 Y109.284 E.01653
G1 X114.978 Y108.79 E.01672
G1 X114.8 Y108.279 E.01696
G1 X114.647 Y107.755 E.01713
G1 X114.519 Y107.219 E.01727
G1 X114.419 Y106.674 E.01737
G1 X114.346 Y106.123 E.01745
G1 X114.303 Y105.57 E.01737
G1 X114.292 Y104.728 E.02639
G1 X114.347 Y103.889 E.02636
G1 X114.419 Y103.342 E.01733
G1 X114.519 Y102.797 E.01737
G1 X114.647 Y102.261 E.01727
G1 X114.8 Y101.737 E.01713
G1 X114.978 Y101.226 E.01696
G1 X115.179 Y100.731 E.01672
G1 X115.401 Y100.254 E.01653
G1 X115.643 Y99.794 E.0163
G1 X116.174 Y98.937 E.03158
G1 X116.666 Y98.29 E.02548
G1 X116.402 Y98.014 F10800
;TYPE:External perimeter
G1 F1200
G1 X116.814 Y97.528 E.01998
G1 X117.337 Y96.993 E.02349
G1 X117.898 Y96.492 E.02359
G1 X118.71 Y95.875 E.03196
G1 X119.602 Y95.322 E.03291
G1 X120.078 Y95.071 E.01687
G1 X120.573 Y94.841 E.01711
G1 X121.085 Y94.633 E.01732
G1 X121.614 Y94.449 E.01755
G1 X122.156 Y94.29 E.01773
G1 X122.711 Y94.158 E.01787
G1 X123.275 Y94.054 E.01798
G1 X123.846 Y93.979 E.01806
G1 X124.42 Y93.934 E.01807
G1 X125.289 Y93.922 E.02724
G1 X126.155 Y93.979 E.02721
G1 X126.725 Y94.054 E.01802
G1 X127.289 Y94.158 E.01798
G1 X127.844 Y94.29 E.01787
G1 X128.386 Y94.449 E.01773
G1 X128.915 Y94.633 E.01755
G1 X129.427 Y94.841 E.01732
G1 X129.922 Y95.071 E.01711
G1 X130.398 Y95.322 E.01687
G1 X131.288 Y95.874 E.03284
G1 X132.104 Y96.494 E.03215
G1 X132.479 Y96.821 E.01562
G1 X133.015 Y97.345 E.02349
G1 X133.516 Y97.906 E.02359
G1 X134.133 Y98.718 E.03196
G1 X134.686 Y99.61 E.03291
G1 X134.937 Y100.086 E.01686
G1 X135.167 Y100.581 E.01712
G1 X135.375 Y101.093 E.01732
G1 X135.559 Y101.622 E.01755
G1 X135.718 Y102.164 E.01773
G1 X135.85 Y102.719 E.01787
G1 X135.954 Y103.283 E.01798
G1 X136.029 Y103.854 E.01806
G1 X136.074 Y104.428 E.01807
G1 X136.085 Y105.297 E.02724
G1 X136.029 Y106.163 E.02721
G1 X135.954 Y106.733 E.01802
G1 X135.85 Y107.297 E.01798
G1 X135.718 Y107.851 E.01787
G1 X135.559 Y108.394 E.01773
G1 X135.375 Y108.923 E.01755
G1 X135.167 Y109.435 E.01732
G1 X134.937 Y109.93 E.01712
G1 X134.686 Y110.406 E.01686
G1 X134.134 Y111.296 E.03284
G1 X133.514 Y112.112 E.03215
G1 X133.186 Y112.487 E.01562
G1 X132.663 Y113.023 E.02349
G1 X132.101 Y113.524 E.02359
G1 X131.29 Y114.141 E.03196
G1 X130.398 Y114.694 E.03291
G1 X129.922 Y114.944 E.01687
G1 X129.427 Y115.175 E.01711
G1 X128.915 Y115.383 E.01732
G1 X128.386 Y115.567 E.01755
G1 X127.844 Y115.725 E.01773
G1 X127.289 Y115.858 E.01787
G1 X126.725 Y115.962 E.01798
G1 X126.154 Y116.037 E.01806
G1 X125.58 Y116.082 E.01807
G1 X124.711 Y116.093 E.02724
G1 X123.845 Y116.037 E.02722
G1 X123.275 Y115.962 E.01802
G1 X122.711 Y115.858 E.01798
G1 X122.156 Y115.725 E.01787
G1 X121.614 Y115.567 E.01773
G1 X121.085 Y115.383 E.01755
G1 X120.573 Y115.175 E.01732
G1 X120.078 Y114.944 E.01711
G1 X119.602 Y114.694 E.01686
G1 X118.712 Y114.142 E.03284
G1 X117.896 Y113.522 E.03214
G1 X117.521 Y113.194 E.01562
G1 X116.985 Y112.67 E.02349
G1 X116.484 Y112.109 E.02359
G1 X115.867 Y111.298 E.03196
G1 X115.314 Y110.406 E.03292
G1 X115.063 Y109.93 E.01687
G1 X114.833 Y109.435 E.01711
G1 X114.625 Y108.923 E.01732
G1 X114.441 Y108.394 E.01755
G1 X114.282 Y107.851 E.01773
G1 X114.15 Y107.297 E.01787
G1 X114.046 Y106.733 E.01798
G1 X113.971 Y106.162 E.01806
G1 X113.926 Y105.587 E.01807
G1 X113.915 Y104.719 E.02724
G1 X113.971 Y103.852 E.02722
G1 X114.046 Y103.283 E.01802
G1 X114.15 Y102.719 E.01798
G1 X114.282 Y102.164 E.01787
G1 X114.441 Y101.622 E.01773
G1 X114.625 Y101.093 E.01755
G1 X114.833 Y100.581 E.01732
G1 X115.063 Y100.086 E.01711
G1 X115.314 Y99.61 E.01686
G1 X115.866 Y98.72 E.03284
G1 X116.365 Y98.062 E.0259
G1 X116.798 Y98.072 F10800
G1 X116.885 Y98.452
;TYPE:Gap fill
;WIDTH:0.220285
G1 F1200
G1 X116.931 Y98.391 E.00113
;WIDTH:0.210367
G1 X116.936 Y98.385 E.00011
;WIDTH:0.218036
G1 X116.993 Y98.316 E.00129
;WIDTH:0.226496
G1 X117.297 Y97.975 E.00698
;WIDTH:0.226497
G1 X117.619 Y97.632 E.00718
;WIDTH:0.208811
G1 X117.625 Y97.627 E.00011
;WIDTH:0.222715
G1 X117.791 Y97.467 E.00344
;WIDTH:0.222713
