; generated by PrusaSlicer 2.4.1+win64 on 2022-04-07 at 22:48:30 UTC

; 

; external perimeters extrusion width = 0.45mm
; perimeters extrusion width = 0.45mm
; infill extrusion width = 0.45mm
; solid infill extrusion width = 0.45mm
; top infill extrusion width = 0.40mm
; support material extrusion width = 0.35mm
; first layer extrusion width = 0.42mm

M73 P0 R37
M73 Q0 S37
M107
;TYPE:Custom
M862.3 P "MK3SMMU2S" ; printer model check
M862.1 P0.4 ; nozzle diameter check
M115 U3.10.0 ; tell printer latest fw version
G90 ; use absolute coordinates
M83 ; extruder relative mode
M104 S215 ; set extruder temp
M140 S60 ; set bed temp
M190 S60 ; wait for bed temp
M109 S215 ; wait for extruder temp
G28 W ; home all without mesh bed level
G80 ; mesh bed leveling

; Send the filament type to the MMU2.0 unit.
; E stands for extruder number, F stands for filament type (0: default; 1:flex; 2: PVA)
M403 E0 F0
M403 E1 F0
M403 E2 F0
M403 E3 F0
M403 E4 F0


;go outside print area
G1 Y-3.0 F1000.0
G1 Z0.4 F1000.0
; select extruder
T4
; initial load
M73 P0 R36
G1 X55.0 E29.0 F1073.0
G1 X5.0 E29.0 F1800.0
M73 Q0 S36
G1 X55.0 E8.0 F2000.0
G1 Z0.3 F1000.0
G92 E0.0
G1 X240.0 E25.0 F2200.0
G1 Y-2.0 F1000.0
M73 P1 R36
M73 Q1 S36
G1 X55.0 E25 F1400.0
G1 Z0.20 F1000.0
G1 X5.0 E4.0 F1000.0
G92 E0.0


M221 S95
G92 E0.0

; Don't change E values below. Excessive value can damage the printer.
M907 E430 ; set extruder motor current
G21 ; set units to millimeters
G90 ; use absolute coordinates
M83 ; use relative distances for extrusion
T4
M900 K0.05 ; Filament gcode LA 1.5
M900 K30 ; Filament gcode LA 1.0
M107
;LAYER_CHANGE
;Z:0.2
;HEIGHT:0.2
;BEFORE_LAYER_CHANGE
G92 E0.0
;0.2


G1 E-.8 F2100
G1 Z.4 F10800
;AFTER_LAYER_CHANGE
;0.2
G1 X150.199 Y76.838
G1 Z.2
G1 E.8 F2100
M204 S1000
;TYPE:Skirt/Brim
;WIDTH:0.42
G1 F1200
G1 X151.007 Y75.467 E.04991
G1 X152.116 Y73.967 E.0585
G1 X153.177 Y72.805 E.04931
G1 X154.542 Y71.588 E.05735
G1 X155.792 Y70.681 E.04842
G1 X157.164 Y69.872 E.04996
G1 X158.644 Y69.183 E.05117
G1 X160.229 Y68.628 E.05267
G1 X161.886 Y68.232 E.0534
G1 X163.593 Y68.005 E.05401
G1 X165.082 Y67.953 E.04669
G1 X166.689 Y68.045 E.05048
G1 X168.387 Y68.315 E.05389
G1 X169.964 Y68.731 E.05114
G1 X171.528 Y69.317 E.05238
G1 X172.986 Y70.032 E.05093
G1 X174.333 Y70.863 E.0496
G1 X175.559 Y71.789 E.04819
G1 X176.721 Y72.85 E.04931
G1 X177.938 Y74.214 E.05735
G1 X178.845 Y75.465 E.04842
G1 X179.654 Y76.837 E.04996
G1 X180.344 Y78.317 E.05117
G1 X180.898 Y79.902 E.05267
G1 X181.294 Y81.558 E.0534
G1 X181.521 Y83.266 E.05401
G1 X181.574 Y84.635 E.04296
G1 X181.488 Y86.292 E.05203
G1 X181.254 Y87.847 E.04929
G1 X180.898 Y89.297 E.0468
G1 X180.345 Y90.88 E.0526
G1 X179.655 Y92.361 E.05122
G1 X178.846 Y93.732 E.04991
G1 X177.737 Y95.232 E.0585
G1 X176.676 Y96.394 E.04931
G1 X175.312 Y97.611 E.05735
G1 X174.061 Y98.518 E.04842
G1 X172.689 Y99.327 E.04996
G1 X171.209 Y100.016 E.05117
G1 X169.624 Y100.571 E.05267
G1 X167.968 Y100.967 E.0534
G1 X166.26 Y101.194 E.05401
G1 X164.891 Y101.247 E.04296
G1 X163.234 Y101.161 E.05203
G1 X161.681 Y100.927 E.04922
G1 X160.229 Y100.571 E.04687
G1 X158.646 Y100.017 E.0526
G1 X157.165 Y99.327 E.05122
G1 X155.794 Y98.519 E.04991
G1 X154.294 Y97.41 E.0585
G1 X153.133 Y96.349 E.04931
G1 X151.915 Y94.984 E.05735
G1 X151.008 Y93.734 E.04842
G1 X150.199 Y92.362 E.04996
G1 X149.51 Y90.882 E.05117
G1 X148.955 Y89.297 E.05267
G1 X148.559 Y87.64 E.0534
G1 X148.332 Y85.933 E.05401
G1 X148.279 Y84.564 E.04296
G1 X148.365 Y82.906 E.05203
G1 X148.6 Y81.352 E.04929
G1 X148.955 Y79.902 E.0468
G1 X149.509 Y78.319 E.0526
G1 X150.173 Y76.892 E.04934
G1 X150.515 Y77.051 F10800
M73 Q2 S36
G1 F1200
G1 X151.32 Y75.677 E.04996
G1 X152.409 Y74.205 E.0574
G1 X153.44 Y73.075 E.04797
G1 X154.78 Y71.88 E.05628
G1 X156.002 Y70.994 E.04733
M73 P2 R36
G1 X157.343 Y70.204 E.04882
G1 X158.79 Y69.53 E.05003
G1 X160.339 Y68.988 E.05146
G1 X161.958 Y68.602 E.0522
G1 X163.628 Y68.381 E.05279
G1 X165.077 Y68.33 E.04546
G1 X166.645 Y68.42 E.04926
G1 X168.247 Y68.671 E.05083
G1 X169.853 Y69.092 E.05207
G1 X171.144 Y69.564 E.04309
G1 X172.509 Y70.203 E.04726
G1 X173.849 Y70.993 E.04877
G1 X175.321 Y72.082 E.0574
G1 X176.451 Y73.113 E.04797
G1 X177.646 Y74.452 E.05628
G1 X178.532 Y75.675 E.04733
G1 X179.322 Y77.016 E.04882
G1 X179.996 Y78.463 E.05003
G1 X180.538 Y80.012 E.05146
G1 X180.924 Y81.631 E.0522
G1 X181.145 Y83.3 E.05279
G1 X181.197 Y84.63 E.04173
G1 X181.112 Y86.258 E.05111
G1 X180.884 Y87.772 E.048
G1 X180.538 Y89.187 E.04567
G1 X179.997 Y90.734 E.0514
G1 X179.323 Y92.182 E.05007
G1 X178.533 Y93.522 E.04877
G1 X177.444 Y94.994 E.0574
G1 X176.413 Y96.124 E.04797
G1 X175.074 Y97.319 E.05628
G1 X173.851 Y98.205 E.04733
G1 X172.51 Y98.995 E.04882
G1 X171.063 Y99.669 E.05003
G1 X169.514 Y100.21 E.05146
G1 X167.895 Y100.597 E.0522
G1 X166.226 Y100.818 E.05279
G1 X164.896 Y100.87 E.04173
G1 X163.268 Y100.785 E.05111
G1 X161.752 Y100.556 E.04807
G1 X160.339 Y100.211 E.04561
G1 X158.792 Y99.67 E.0514
G1 X157.344 Y98.996 E.05007
G1 X156.004 Y98.206 E.04877
G1 X154.532 Y97.117 E.0574
G1 X153.402 Y96.086 E.04797
G1 X152.207 Y94.746 E.05628
G1 X151.321 Y93.524 E.04733
G1 X150.531 Y92.183 E.04882
G1 X149.857 Y90.736 E.05003
G1 X149.316 Y89.187 E.05146
G1 X148.929 Y87.568 E.0522
G1 X148.708 Y85.898 E.05279
G1 X148.656 Y84.569 E.04173
G1 X148.741 Y82.941 E.05111
G1 X148.97 Y81.425 E.04806
G1 X149.316 Y80.012 E.04561
G1 X149.856 Y78.465 E.0514
G1 X150.489 Y77.106 E.047
; printing object leather_rose_shaper_mod.stl id:0 copy 0
;WIPE_START
G1 F8640
G1 X151.32 Y75.677 E-.38171
G1 X152.294 Y74.36 E-.37829
;WIPE_END
G1 E-.04 F2100
G1 Z.6 F10800
G1 X153.932 Y78.839
G1 Z.2
G1 E.8 F2100
;TYPE:Perimeter
G1 F1200
G1 X154.278 Y78.217 E.02231
G1 X154.604 Y77.702 E.0191
G1 X154.955 Y77.204 E.01911
G1 X155.33 Y76.724 E.01911
G1 X155.728 Y76.262 E.01911
G1 X156.148 Y75.821 E.0191
G1 X156.59 Y75.401 E.01911
G1 X157.051 Y75.003 E.01911
G1 X157.531 Y74.628 E.0191
G1 X158.029 Y74.277 E.01911
G1 X158.544 Y73.951 E.01911
G1 X159.074 Y73.651 E.0191
G1 X159.619 Y73.377 E.01911
G1 X160.176 Y73.13 E.0191
G1 X160.744 Y72.911 E.01911
G1 X161.323 Y72.72 E.01911
G1 X161.91 Y72.557 E.01911
G1 X162.505 Y72.423 E.01911
G1 X163.105 Y72.319 E.0191
G1 X163.71 Y72.245 E.01911
G1 X164.317 Y72.2 E.0191
G1 X164.883 Y72.186 E.01775
G1 X165.534 Y72.2 E.02041
G1 X166.143 Y72.245 E.01916
G1 X166.748 Y72.319 E.01911
G1 X167.349 Y72.423 E.01911
G1 X167.943 Y72.557 E.0191
G1 X168.53 Y72.719 E.01911
G1 X169.109 Y72.911 E.01911
G1 X169.677 Y73.13 E.01911
G1 X170.234 Y73.377 E.0191
G1 X170.779 Y73.651 E.01911
G1 X171.309 Y73.951 E.0191
G1 X171.824 Y74.277 E.01911
G1 X172.322 Y74.628 E.01911
G1 X172.802 Y75.003 E.0191
G1 X173.264 Y75.401 E.0191
G1 X173.705 Y75.821 E.01911
G1 X174.125 Y76.262 E.01911
G1 X174.523 Y76.724 E.01911
G1 X174.898 Y77.204 E.0191
G1 X175.249 Y77.702 E.01911
G1 X175.575 Y78.217 E.01911
G1 X175.875 Y78.747 E.0191
G1 X176.149 Y79.292 E.01911
G1 X176.396 Y79.849 E.0191
G1 X176.615 Y80.417 E.01911
G1 X176.807 Y80.996 E.0191
G1 X176.969 Y81.583 E.01911
G1 X177.103 Y82.177 E.0191
G1 X177.207 Y82.778 E.01911
G1 X177.281 Y83.383 E.0191
G1 X177.326 Y83.99 E.01911
G1 X177.341 Y84.599 E.01911
G1 X177.326 Y85.209 E.01911
G1 X177.281 Y85.816 E.0191
G1 X177.207 Y86.421 E.01911
G1 X177.103 Y87.021 E.01911
G1 X176.969 Y87.616 E.0191
G1 X176.807 Y88.203 E.01911
G1 X176.615 Y88.782 E.0191
G1 X176.396 Y89.35 E.01911
G1 X176.149 Y89.907 E.0191
G1 X175.875 Y90.452 E.01911
G1 X175.575 Y90.982 E.0191
G1 X175.249 Y91.497 E.01911
G1 X174.898 Y91.995 E.01911
G1 X174.523 Y92.475 E.0191
G1 X174.125 Y92.937 E.01911
G1 X173.705 Y93.378 E.01911
G1 X173.264 Y93.798 E.0191
G1 X172.802 Y94.196 E.01911
G1 X172.322 Y94.571 E.01911
G1 X171.824 Y94.922 E.01911
G1 X171.309 Y95.248 E.0191
G1 X170.779 Y95.548 E.01911
G1 X170.234 Y95.822 E.01911
G1 X169.677 Y96.069 E.0191
G1 X169.109 Y96.288 E.01911
G1 X168.53 Y96.479 E.0191
G1 X167.943 Y96.642 E.01911
G1 X167.349 Y96.775 E.0191
G1 X166.748 Y96.88 E.01911
G1 X166.143 Y96.954 E.01911
G1 X165.536 Y96.999 E.0191
G1 X164.927 Y97.014 E.01911
G1 X164.317 Y96.999 E.01911
G1 X163.71 Y96.954 E.01911
G1 X163.105 Y96.88 E.0191
G1 X162.505 Y96.775 E.01911
G1 X161.91 Y96.642 E.0191
G1 X161.323 Y96.479 E.01911
G1 X160.744 Y96.288 E.01911
G1 X160.176 Y96.069 E.01911
G1 X159.619 Y95.822 E.01911
G1 X159.074 Y95.548 E.0191
G1 X158.544 Y95.248 E.01911
G1 X158.029 Y94.922 E.01911
G1 X157.531 Y94.571 E.01911
G1 X157.051 Y94.196 E.0191
G1 X156.59 Y93.798 E.01911
G1 X156.148 Y93.378 E.01911
G1 X155.728 Y92.937 E.01911
G1 X155.33 Y92.475 E.01911
G1 X154.955 Y91.995 E.0191
G1 X154.604 Y91.497 E.01911
G1 X154.278 Y90.982 E.01911
G1 X153.978 Y90.452 E.01911
G1 X153.704 Y89.907 E.01911
G1 X153.457 Y89.35 E.0191
G1 X153.238 Y88.782 E.01911
G1 X153.047 Y88.203 E.01911
G1 X152.884 Y87.616 E.01911
G1 X152.751 Y87.021 E.0191
G1 X152.646 Y86.421 E.01911
G1 X152.572 Y85.816 E.0191
G1 X152.527 Y85.209 E.01911
G1 X152.512 Y84.599 E.01911
G1 X152.527 Y83.99 E.01911
G1 X152.572 Y83.383 E.0191
G1 X152.646 Y82.778 E.01911
G1 X152.751 Y82.177 E.01911
G1 X152.884 Y81.583 E.0191
G1 X153.047 Y80.996 E.0191
G1 X153.238 Y80.417 E.01911
G1 X153.457 Y79.849 E.01911
G1 X153.704 Y79.292 E.0191
G1 X153.905 Y78.892 E.01402
G1 X154.269 Y79.008 F10800
G1 F1200
G1 X154.602 Y78.411 E.02144
G1 X154.918 Y77.912 E.01852
G1 X155.258 Y77.429 E.01853
G1 X155.622 Y76.963 E.01852
G1 X156.008 Y76.516 E.01852
G1 X156.415 Y76.088 E.01852
G1 X156.843 Y75.68 E.01853
G1 X157.29 Y75.294 E.01853
G1 X157.756 Y74.931 E.01852
G1 X158.239 Y74.591 E.01853
G1 X158.738 Y74.275 E.01852
G1 X159.252 Y73.983 E.01852
G1 X159.78 Y73.718 E.01853
G1 X160.32 Y73.478 E.01852
G1 X160.871 Y73.266 E.01853
G1 X161.432 Y73.08 E.01852
G1 X162.002 Y72.923 E.01852
G1 X162.578 Y72.793 E.01852
G1 X163.16 Y72.692 E.01852
G1 X163.747 Y72.62 E.01853
G1 X164.336 Y72.577 E.01852
G1 X164.884 Y72.563 E.01719
G1 X165.516 Y72.577 E.01983
G1 X166.106 Y72.62 E.01856
G1 X166.693 Y72.692 E.01853
G1 X167.275 Y72.793 E.01853
G1 X167.851 Y72.923 E.01852
G1 X168.421 Y73.08 E.01852
G1 X168.982 Y73.266 E.01852
G1 X169.533 Y73.478 E.01853
G1 X170.073 Y73.718 E.01852
G1 X170.601 Y73.983 E.01853
G1 X171.115 Y74.275 E.01852
G1 X171.614 Y74.591 E.01852
G1 X172.097 Y74.931 E.01853
G1 X172.563 Y75.294 E.01852
G1 X173.01 Y75.68 E.01852
G1 X173.438 Y76.088 E.01853
G1 X173.846 Y76.516 E.01852
G1 X174.232 Y76.963 E.01853
G1 X174.595 Y77.429 E.01852
G1 X174.935 Y77.912 E.01853
G1 X175.251 Y78.411 E.01852
G1 X175.543 Y78.925 E.01852
G1 X175.808 Y79.453 E.01853
G1 X176.048 Y79.993 E.01852
G1 X176.26 Y80.544 E.01853
G1 X176.446 Y81.105 E.01852
G1 X176.603 Y81.675 E.01852
G1 X176.733 Y82.251 E.01852
G1 X176.834 Y82.833 E.01853
G1 X176.906 Y83.42 E.01852
G1 X176.949 Y84.009 E.01853
G1 X176.964 Y84.599 E.01852
G1 X176.949 Y85.19 E.01852
G1 X176.906 Y85.779 E.01852
G1 X176.834 Y86.366 E.01853
G1 X176.733 Y86.948 E.01853
G1 X176.603 Y87.524 E.01852
G1 X176.446 Y88.094 E.01852
G1 X176.26 Y88.655 E.01852
G1 X176.048 Y89.206 E.01853
G1 X175.808 Y89.746 E.01852
G1 X175.543 Y90.274 E.01853
G1 X175.251 Y90.788 E.01852
G1 X174.935 Y91.287 E.01852
G1 X174.595 Y91.77 E.01853
G1 X174.232 Y92.236 E.01852
G1 X173.846 Y92.683 E.01852
G1 X173.438 Y93.111 E.01853
G1 X173.01 Y93.519 E.01852
G1 X172.563 Y93.904 E.01852
G1 X172.097 Y94.268 E.01852
G1 X171.614 Y94.608 E.01853
G1 X171.115 Y94.924 E.01852
G1 X170.601 Y95.215 E.01852
G1 X170.073 Y95.481 E.01853
G1 X169.533 Y95.72 E.01852
G1 X168.982 Y95.933 E.01853
G1 X168.421 Y96.118 E.01852
G1 X167.851 Y96.276 E.01853
G1 X167.275 Y96.405 E.01852
G1 X166.693 Y96.506 E.01853
G1 X166.106 Y96.579 E.01853
G1 X165.517 Y96.622 E.01852
G1 X164.927 Y96.637 E.01852
G1 X164.336 Y96.622 E.01852
G1 X163.747 Y96.579 E.01853
G1 X163.16 Y96.506 E.01852
G1 X162.578 Y96.405 E.01853
G1 X162.002 Y96.276 E.01852
G1 X161.432 Y96.118 E.01853
G1 X160.871 Y95.933 E.01852
G1 X160.32 Y95.72 E.01853
G1 X159.78 Y95.481 E.01852
G1 X159.252 Y95.215 E.01852
G1 X158.738 Y94.924 E.01852
G1 X158.239 Y94.608 E.01853
G1 X157.756 Y94.268 E.01852
G1 X157.29 Y93.904 E.01852
G1 X156.843 Y93.519 E.01852
G1 X156.415 Y93.111 E.01853
G1 X156.008 Y92.683 E.01852
G1 X155.622 Y92.236 E.01853
G1 X155.258 Y91.77 E.01852
G1 X154.918 Y91.287 E.01853
G1 X154.602 Y90.788 E.01852
G1 X154.311 Y90.274 E.01852
G1 X154.045 Y89.746 E.01852
G1 X153.806 Y89.206 E.01852
G1 X153.593 Y88.655 E.01853
G1 X153.408 Y88.094 E.01852
G1 X153.25 Y87.524 E.01852
G1 X153.121 Y86.948 E.01852
G1 X153.02 Y86.366 E.01853
G1 X152.947 Y85.779 E.01852
G1 X152.904 Y85.19 E.01852
G1 X152.889 Y84.599 E.01852
G1 X152.904 Y84.009 E.01852
G1 X152.947 Y83.42 E.01852
G1 X153.02 Y82.833 E.01853
G1 X153.121 Y82.251 E.01853
G1 X153.25 Y81.675 E.01852
G1 X153.408 Y81.105 E.01852
G1 X153.593 Y80.544 E.01852
G1 X153.806 Y79.993 E.01853
G1 X154.242 Y79.062 E.03224
G1 X154.606 Y79.178 F10800
;TYPE:External perimeter
G1 F1200
G1 X154.925 Y78.605 E.02057
G1 X155.232 Y78.121 E.01794
G1 X155.561 Y77.654 E.01795
G1 X155.913 Y77.202 E.01794
G1 X156.287 Y76.769 E.01794
G1 X156.682 Y76.355 E.01794
G1 X157.096 Y75.96 E.01794
G1 X157.53 Y75.586 E.01794
G1 X157.981 Y75.234 E.01794
G1 X158.449 Y74.904 E.01794
G1 X158.932 Y74.598 E.01794
G1 X159.43 Y74.316 E.01794
G1 X159.941 Y74.059 E.01794
G1 X160.464 Y73.827 E.01794
G1 X160.998 Y73.621 E.01794
G1 X161.542 Y73.441 E.01794
G1 X162.093 Y73.289 E.01794
G1 X162.652 Y73.163 E.01794
G1 X163.216 Y73.066 E.01794
G1 X163.784 Y72.995 E.01795
G1 X164.354 Y72.953 E.01794
G1 X164.885 Y72.94 E.01663
G1 X165.498 Y72.953 E.01925
G1 X166.069 Y72.995 E.01795
G1 X166.637 Y73.066 E.01794
G1 X167.201 Y73.163 E.01794
G1 X167.76 Y73.289 E.01794
G1 X168.311 Y73.441 E.01794
G1 X168.855 Y73.621 E.01794
G1 X169.389 Y73.827 E.01794
G1 X169.912 Y74.059 E.01794
G1 X170.423 Y74.316 E.01794
G1 X170.921 Y74.598 E.01794
G1 X171.405 Y74.904 E.01794
G1 X171.873 Y75.234 E.01795
G1 X172.324 Y75.586 E.01794
G1 X172.757 Y75.96 E.01794
G1 X173.172 Y76.354 E.01794
G1 X173.566 Y76.769 E.01794
G1 X173.94 Y77.202 E.01794
G1 X174.292 Y77.653 E.01794
G1 X174.622 Y78.121 E.01795
G1 X174.928 Y78.605 E.01794
G1 X175.21 Y79.103 E.01794
G1 X175.467 Y79.614 E.01794
G1 X175.699 Y80.137 E.01794
G1 X175.905 Y80.671 E.01794
G1 X176.085 Y81.215 E.01794
G1 X176.237 Y81.766 E.01794
G1 X176.363 Y82.325 E.01794
G1 X176.461 Y82.889 E.01795
G1 X176.531 Y83.457 E.01794
G1 X176.573 Y84.027 E.01794
G1 X176.587 Y84.599 E.01794
G1 X176.573 Y85.172 E.01794
G1 X176.531 Y85.742 E.01794
G1 X176.461 Y86.31 E.01794
G1 X176.363 Y86.874 E.01794
G1 X176.237 Y87.433 E.01794
G1 X176.085 Y87.984 E.01794
G1 X175.905 Y88.528 E.01794
G1 X175.699 Y89.062 E.01794
G1 X175.467 Y89.585 E.01794
G1 X175.21 Y90.096 E.01794
G1 X174.928 Y90.594 E.01794
G1 X174.622 Y91.077 E.01794
G1 X174.292 Y91.545 E.01794
G1 X173.94 Y91.997 E.01794
G1 X173.566 Y92.43 E.01794
G1 X173.172 Y92.844 E.01794
G1 X172.757 Y93.239 E.01794
G1 X172.324 Y93.613 E.01794
G1 X171.873 Y93.965 E.01794
G1 X171.405 Y94.294 E.01794
G1 X170.921 Y94.601 E.01794
G1 X170.423 Y94.883 E.01794
G1 X169.912 Y95.14 E.01794
G1 X169.389 Y95.372 E.01794
G1 X168.855 Y95.578 E.01794
G1 X168.311 Y95.757 E.01794
G1 X167.76 Y95.91 E.01794
G1 X167.201 Y96.036 E.01794
G1 X166.638 Y96.133 E.01794
G1 X166.069 Y96.203 E.01794
G1 X165.499 Y96.246 E.01794
G1 X164.927 Y96.26 E.01794
G1 X164.354 Y96.246 E.01794
G1 X163.784 Y96.203 E.01794
G1 X163.216 Y96.133 E.01794
G1 X162.652 Y96.036 E.01795
G1 X162.093 Y95.91 E.01794
G1 X161.542 Y95.757 E.01794
G1 X160.998 Y95.578 E.01794
G1 X160.464 Y95.372 E.01794
G1 X159.941 Y95.14 E.01794
G1 X159.43 Y94.883 E.01794
G1 X158.932 Y94.601 E.01794
G1 X158.449 Y94.294 E.01794
G1 X157.981 Y93.965 E.01794
G1 X157.53 Y93.613 E.01794
G1 X157.096 Y93.239 E.01794
G1 X156.682 Y92.844 E.01794
G1 X156.287 Y92.43 E.01794
G1 X155.913 Y91.997 E.01794
G1 X155.561 Y91.545 E.01794
G1 X155.232 Y91.077 E.01794
G1 X154.925 Y90.594 E.01794
G1 X154.643 Y90.096 E.01794
G1 X154.386 Y89.585 E.01794
G1 X154.154 Y89.062 E.01794
G1 X153.948 Y88.528 E.01794
G1 X153.769 Y87.984 E.01794
G1 X153.616 Y87.433 E.01794
G1 X153.491 Y86.874 E.01794
G1 X153.393 Y86.31 E.01795
